X:1030
T:Whelan's Old Sow
R:jig
Z:transcribed by Dave Marshall
M:6/8
K:D
|: F2E EDE | F2D DED | F2E EFE | DFA dAG |
F2E EDE | F2D DFA | B2d A2d | FEF AFE :|
|: DFA ~d3 | ABF AFE | DFA dcd | Bcd edB |
AFA d2e | fdB BAF | B2d A2d | FEF AFE :|
